src/rounded/icons/fi-rr-time-fast.svg

<svg id="Layer_1" height="512" viewBox="0 0 24 24" width="512" xmlns="http://www.w3.org/2000/svg" data-name="Layer 1"><path d="m9 24h-8a1 1 0 0 1 0-2h8a1 1 0 0 1 0 2z"/><path d="m7 20h-6a1 1 0 0 1 0-2h6a1 1 0 0 1 0 2z"/><path d="m5 16h-4a1 1 0 0 1 0-2h4a1 1 0 0 1 0 2z"/><path d="m13 23.955a1 1 0 0 1 -.089-2 10 10 0 1 0 -10.87-10.865 1 1 0 0 1 -1.992-.18 12 12 0 0 1 23.951 1.09 11.934 11.934 0 0 1 -10.91 11.951c-.03.003-.061.004-.09.004z"/><path d="m12 6a1 1 0 0 0 -1 1v5a1 1 0 0 0 .293.707l3 3a1 1 0 0 0 1.414-1.414l-2.707-2.707v-4.586a1 1 0 0 0 -1-1z"/></svg>

<svg id="Layer_1" data-name="Layer 1" xmlns="http://www.w3.org/2000/svg" viewBox="0 0 24 24"><path d="M9,24H1a1,1,0,0,1,0-2H9a1,1,0,0,1,0,2Z"/><path d="M7,20H1a1,1,0,0,1,0-2H7a1,1,0,0,1,0,2Z"/><path d="M5,16H1a1,1,0,0,1,0-2H5a1,1,0,0,1,0,2Z"/><path d="M13,23.955a1,1,0,0,1-.089-2A10,10,0,1,0,2.041,11.09a1,1,0,0,1-1.992-.18A12,12,0,0,1,24,12,11.934,11.934,0,0,1,13.09,23.951C13.06,23.954,13.029,23.955,13,23.955Z"/><path d="M12,6a1,1,0,0,0-1,1v5a1,1,0,0,0,.293.707l3,3a1,1,0,0,0,1.414-1.414L13,11.586V7A1,1,0,0,0,12,6Z"/></svg>
